X: 1063
T: Hicrân Oku Sînem Deler
C: Şevki Bey
O: Turkey
F: http://compmusic.upf.edu/node/140
N: huseyni--sarki--turkaksagi--hicran_oku--sevki_bey
N: makam= huseyni
N: form= sarki
N: usul= turkaksagi = 5/8
M: 5/8
L: 1/16
K: C _2/4B ^3/4f  
Q: 1/4=132
%%MIDI tuningsystem comma53
d2cd e4 ed | dc cBc4z2  | d2cd e4 ed | dc cBc4z2  | 
w:  ARANAĞME  |   |   |   | 
d2cd e2f2 g2 | a2 g2{b}ag =fed2  | c2B2 e2d2 {e}dc | \
w:   |   |   | 
cB BAA4z2  | 
w:   | 
d2cd e4 ed | dc cBc4z2  | d2cd e4 ed | dc cBc4z2  | 
w:  ARANAĞME  |   |   |   | 
d2cd e2f2 g2 | a2 g2{b}ag =fed2  | c2B2 e2d2 {e}dc | \
w:   |   |   | 
cB BAA4z2  | 
w:   | 
A4 d2c2 d2 | e8z2  | e2d2 d2c2 d2 | c2 d2c2 B2A2  | \
w:  Hic rân_ *  o  |  ku   |  sî *  nem  *  de  |  ler    | 
A4 d2c2 d2 | e8z2  | 
w:  Hic rân_ *  o  |  ku   | 
e2d2 d2c2 d2 | e4AB cde2  | e2d2 d2c2 B2 | \
w:  sî *  nem  *  de  |  ler   SAZ  |  Ol *  mak *  ta  | 
c2 {d}cBc2 d2e2  | 
w:  dır   | 
=f2e2 d2c2 B2 | c2 {d}BAB4z2  | A2B2 c2d2 e2 | \
w:  ha *  lim  *  be  |  ter    |  Ol *  mak *  ta  | 
=f2 e2d2 c2B2  | d3c c2B2 BA | 
w:  dır   |  ha *  lim  *  be  | 
A4de fag2  | g3f g4 a2 | =ba gfe4z2  | g2fe f2g2 a2 | 
w:  ter   SAZ  |  Bu  *  if ti  |  rak   |  ar *  *  tık  *  ye  | 
{a}g2 fed4z2  | =f2{g}fe f4 e2 | =f2 e2f2 g2a2  | \
w:  *  ter    |  Bu  *  *  *  if ti  |  rak   | 
e3d d2c2 d2 | e4AB cde2  | 
w:  ar *  tık  *  ye  |  ter   SAZ  | 
e2d2 d2c2 B2 | c2 {d}cBc2 d2e2  | =f2e2 d2c2 B2 | \
w:  İn *  sâ *  fa   |  gel   |  ey  *  şî *  ve  | 
c2 {d}BAB4z2  | 
w:  ger    | 
A2B2 c2d2 e2 | =f2 e2d2 c2B2  | d3c c2B2 BA | \
w:  Bir  *  gün_ *  o  |  lur   |  ça *  ğın  *  ge  | 
A4AB cde2  | 
w:  çer   SAZ  | 
e2d2 d2c2 B2 | c2 {d}cBc2 d2e2  | =f2e2 d2c2 B2 | \
w:  İn *  sâ *  fa   |  gel   |  ey  *  şî *  ve  | 
c2 {d}BAB4z2  | 
w:  ger    | 
A2B2 c2d2 e2 | =f2 e2d2 c2B2  | d3c c2B2 BA | \
w:  Bir  *  gün_ *  o  |  lur   |  ça *  ğın  *  ge  | 
A8z2  | d2cd e4 ed | 
w:  çer    |  ARANAĞME  | 
dc cBc4z2  | d2cd e4 ed | dc cBc4z2  | d2cd e2f2 g2 | 
w:   |   |   |   | 
a2 g2{b}ag =fed2  | c2B2 e2d2 {e}dc | \
w:   |   | 
cB BAA4z2  | d2cd e4 ed | 
w:   |  ARANAĞME  | 
dc cBc4z2  | d2cd e4 ed | dc cBc4z2  | d2cd e2f2 g2 | 
w:   |   |   |   | 
a2 g2{b}ag =fed2  | c2B2 e2d2 {e}dc | \
w:   |   | 
cB BAA4z2  | A4 d2c2 d2 | 
w:   |  Hic rân_ *  o  | 
e8z2  | e2d2 d2c2 d2 | c2 d2c2 B2A2  | A4 d2c2 d2 | \
w:  ku   |  sî *  nem  *  de  |  ler    |  Hic rân_ *  o  | 
e8z2  | e2d2 d2c2 d2 | 
w:  ku   |  sî *  nem  *  de  | 
e4AB cde2  | e2d2 d2c2 B2 | c2 {d}cBc2 d2e2  | \
w:  ler   SAZ  |  Ol *  mak *  ta  |  dır   | 
=f2e2 d2c2 B2 | 
w:  ha *  lim  *  be  | 
c2 {d}BAB4z2  | A2B2 c2d2 e2 | =f2 e2d2 c2B2  | \
w:  ter    |  Ol *  mak *  ta  |  dır   | 
d3c c2B2 BA | 
w:  ha *  lim  *  be  | 
A4de fag2  | g3f g4 a2 | =ba gfe4z2  | g2fe f2g2 a2 | 
w:  ter   SAZ  |  Bu  *  if ti  |  rak   |  ar *  *  tık  *  ye  | 
{a}g2 fed4z2  | =f2{g}fe f4 e2 | =f2 e2f2 g2a2  | \
w:  *  ter    |  Bu  *  *  *  if ti  |  rak   | 
e3d d2c2 d2 | e4AB cde2  | 
w:  ar *  tık  *  ye  |  ter   SAZ  | 
e2d2 d2c2 B2 | c2 {d}cBc2 d2e2  | =f2e2 d2c2 B2 | \
w:  İn *  sâ *  fa   |  gel   |  ey  *  şî *  ve  | 
c2 {d}BAB4z2  | 
w:  ger    | 
A2B2 c2d2 e2 | =f2 e2d2 c2B2  | d3c c2B2 BA | \
w:  Bir  *  gün_ *  o  |  lur   |  ça *  ğın  *  ge  | 
A4AB cde2  | 
w:  çer   SAZ  | 
e2d2 d2c2 B2 | c2 {d}cBc2 d2e2  | =f2e2 d2c2 B2 | \
w:  İn *  sâ *  fa   |  gel   |  ey  *  şî *  ve  | 
c2 {d}BAB4z2  | 
w:  ger    | 
A2B2 c2d2 e2 | =f2 e2d2 c2B2  | d3c c2B2 BA | \
w:  Bir  *  gün_ *  o  |  lur   |  ça *  ğın  *  ge  | 
A8z2  | |


